X:1
T:Second Species Examples From Fux, Gradus ad Parnassum , Part I (Exercises in two parts) Annotated with all 'vertical' intervals 
T:CC0 1.0 Universal (Public Domain). Mark Gotham and FourScoreAndMore.org waive all rights to this document.
T:CC0 1.0 Universal (Public Domain). Mark Gotham and FourScoreAndMore.org waive all rights to this document.
T:CC0 1.0 Universal (Public Domain). Mark Gotham and FourScoreAndMore.org waive all rights to this document.
T:CC0 1.0 Universal (Public Domain). Mark Gotham and FourScoreAndMore.org waive all rights to this document.
Z:CC0 1.0 Universal (Public Domain). Mark Gotham and FourScoreAndMore.org waive all rights to this document.
%%score { 1 2 }
L:1/8
M:2/2
K:C
V:1 treble nm="Piano"
V:2 treble nm="Piano"
V:1
"^Fig. 33 (corrected version of 26); Species: 2; Modal final: d; Cantus firmus: Lower" A4 d4 | %1
w: P5 P8|
 A4 B4 | c4 G4 | A4 d4 | B4 c4 | d4 A4 | c4 d4 | e4 B4 | d4 A4 | B4 ^c4 | d8 |] %11
w: M3 A4|m6 m3|P5 P8|M3 P4|M6 M3|m3 P4|M6 M3|M6 M3|P5 M6|P8|
"^Fig. 35; Species: 2; Modal final: d; Cantus firmus: Upper" D8 | F8 | E8 | D8 | G8 | F8 | A8 | %18
w: |||||||
 G8 | F8 | E8 | D8 |]"^Fig. 36; Species: 2; Modal final: e; Cantus firmus: Lower" z4 B4 | c4 B4 | %24
w: ||||P5|P8 M7|
 A4 B4 | c4 G4 | A4 B4 | c4 A4 | B4 d4 | e4 d4 | c4 d4 | e8 |] %32
w: P5 M6|P8 P5|P8 M9|m3 P1|M3 P5|P8 m7|P5 M6|P8|
"^Fig. 37; Species: 2; Modal final: e; Cantus firmus: Upper" E8 | C8 | D8 | C8 | A,8 | A8 | G8 | %39
w: |||||||
 E8 | F8 | E8 |][K:treble-8]"^Fig. 38; Species: 2; Modal final: f; Cantus firmus: Lower" z4 f4 | %43
w: |||P8|
 e4 d4 | c4 _B4 | A4 G4 | F4 A4 | c4 _B4 | A4 a4 | g4 e4 | f4 g4 | a4 f4 | d4 e4 | f8 |] %54
w: M6 P5|m3 m2|M3 M2|m3 P5|m6 d5|M3 M10|P5 M3|m6 m7|M10 P8|P5 M6|P8|
[K:treble-8]"^Fig. 39; Species: 2; Modal final: f; Cantus firmus: Upper" F8 | G8 | A8 | F8 | D8 | %59
w: |||||
 E8 | F8 | c8 | A8 | F8 | G8 | F8 |] %66
w: |||||||
[K:treble]"^Fig. 40; Species: 2; Modal final: g; Cantus firmus: Lower" z4 G4 | E4 F4 | G4 A4 | %69
w: P8|M3 P4|m6 m7|
 B4 A4 | G4 c4 | B4 c4 | d4 c4 | B4 A4 | G4 F4 | E4 c4 | B4 A4 | G4 D4 | E4 ^F4 | G8 |] %80
w: M10 M9|P5 P8|P5 m6|P8 m7|M3 M2|m3 m2|M3 P8|M6 P5|m6 m3|P5 M6|P8|
[K:treble-8]"^Fig. 41; Species: 2; Modal final: g; Cantus firmus: Upper" G8 | c8 | B8 | G8 | c8 | %85
w: |||||
 e8 | d8 | g8 | e8 | c8 | d8 | B8 | A8 | G8 |] %94
w: |||||||||
[K:treble]"^Fig. 42; Species: 2; Modal final: a; Cantus firmus: Lower" z4 A4 | E4 F4 | G4 D4 | %97
w: P8|M3 P4|m6 m3|
 E4 e4 | c4 B4 | A4 F4 | G4 B4 | d4 A4 | c4 E4 | ^F4 ^G4 | A8 |] %105
w: M3 M10|m6 P5|M3 P1|m3 P5|P8 P5|P8 M3|P5 M6|P8|
"^Fig. 43; Species: 2; Modal final: a; Cantus firmus: Upper" A,8 | C8 | B,8 | D8 | C8 | E8 | F8 | %112
w: |||||||
 E8 | D8 | C8 | B,8 | A,8 |]"^Fig. 44; Species: 2; Modal final: c; Cantus firmus: Lower" z4 G4 | %118
w: |||||P5|
 c4 B4 | A4 d4 | B4 A4 | G4 B4 | c4 d4 | e4 d4 | c4 B4 | A4 B4 | c4 G4 | A4 B4 | c8 |] %129
w: m6 P5|M3 M6|M3 M2|m3 P5|m3 P4|M6 P5|m6 P5|M3 A4|m6 m3|P5 M6|P8|
"^Fig. 45; Species: 2; Modal final: c; Cantus firmus: Upper" C8 | E8 | F8 | G8 | E8 | A8 | G8 | %136
w: |||||||
 E8 | F8 | E8 | D8 | C8 |] %141
w: |||||
V:2
 D8 | F8 | E8 | D8 | G8 | F8 | A8 | G8 | F8 | E8 | D8 |][K:bass] z4 D,4 | D4 A,4 | C4 A,4 | %14
w: |||||||||||P8|m3 m6|M3 P5|
 B,4 A,4 | G,4 B,4 | D4 E4 | F4 C4 | E4 B,4 | D4 D,4 | A,4 ^C4 | D8 |][K:treble] E8 | C8 | D8 | %25
w: m3 P4|P8 m6|m3 m2|M3 M6|m3 m6|m3 m10|P5 m3|P1||||
 C8 | A,8 | A8 | G8 | E8 | F8 | E8 |][K:treble-8] z4 E4 | A4 G4 | F4 D4 | E4 C4 | F4 c4 | f4 d4 | %38
w: |||||||P8|m3 P4|M6 P8|m6 P8|M3 m3|M3 P5|
 e4 d4 | c4 B4 | A4 d4 | e8 |][K:treble-8] F8 | G8 | A8 | F8 | D8 | E8 | F8 | c8 | A8 | F8 | G8 | %53
w: m3 P4|M3 P4|m6 m3|P1||||||||||||
 F8 |] z4 F4 | E4 C4 | F4 E4 | D4 C4 | _B,4 _B4 | G4 c4 | A4 F4 | E4 C4 | F4 F,4 | A,4 D4 | C4 E4 | %65
w: |P1|m3 P5|M3 P4|m3 P4|M3 m6|m3 m6|M3 P1|m6 P8|M3 M10|m6 m3|P5 m3|
 F8 |] G8 | c8 | B8 | G8 | c8 | e8 | d8 | g8 | e8 | c8 | d8 | B8 | A8 | G8 |] z4 G4 | E4 F4 | %82
w: P1|||||||||||||||P1|m6 P5|
 G4 F4 | E4 D4 | C4 E4 | C4 c4 | B4 A4 | G4 B4 | c4 B4 | A4 G4 | ^F4 D4 | G4 B,4 | D4 ^F4 | G8 |] %94
w: M3 A4|m3 P4|P8 m6|M10 M3|m3 P4|P8 m6|M3 P4|m3 P4|m6 P8|M3 P8|P5 m3|P1|
 A8 | c8 | B8 | c8 | e8 | f8 | e8 | d8 | c8 | B8 | A8 |][K:bass] z4 A,,4 | A,4 E,4 | G,4 E,4 | %108
w: |||||||||||P8|m3 m6|M3 P5|
 D,4 F,4 | A,4 B,4 | C4 C,4 | D,4 A,,4 | C,4 E,4 | F,4 G,4 | A,4 A,,4 | E,4 ^G,4 | A,8 |] %117
w: P8 M6|m3 m2|M3 M10|m10 m13|M10 P8|M6 P5|m3 m10|P5 m3|P1|
[K:treble] C8 | E8 | F8 | G8 | E8 | A8 | G8 | E8 | F8 | E8 | D8 | C8 |][K:treble-8] z4 C4 | c4 B4 | %131
w: ||||||||||||P8|M3 P4|
 A4 d4 | B4 G4 | c4 B4 | A4 c4 | e4 d4 | c4 A4 | d4 A4 | c4 C4 | G4 B4 | c8 |] %141
w: m6 m3|m6 P8|M3 P4|P8 M6|m3 P4|M3 P5|m3 m6|M3 M10|P5 m3|P1|

